X:1
T: Autumn in Amherst
N:
C:Tune is "The Red Star Line" by Kathy Talvitie
S:
A:
O:
R:
M:4/4
K:A
I:speed 150
%W:
% voice 1 (1 lines, 25 notes)
K:A
M:4/4
L:1/16
e2 d2 |c6 d2 B4 c2 d2 |c4 B2 A2 F2 A2 E2 A2 |E4 e2 d2 c4 A4 |d6 c2 B2 c2 d2 f2 |
%W:
% voice 1 (1 lines, 22 notes)
e6 d2 c4 c4/3 |d4/3 e4/3 a6 g2 |f2 e2 c2 B2 A4 a2 g2 |f4 e4 d4 c4 |B4 B2 c2
%W:
% voice 1 (1 lines, 24 notes)
A6 f2 |e4 c2 B2 A2 B2 c2 a2 |f4 a4/3 g4/3 f4/3 |e6 d2 c4 B2 A2 |d6 c2 B2 A2 G2 E2 |
%W:
% voice 1 (1 lines, 22 notes)
F4 A2 c2 B2 c2 d2 f2 |e4 g2 a2 f4 g4 |a4 e4 d2 c2 B2 A2 |B4 A2 G2 A4 ||
